X: 23N: FIXME WRONG LINE
I: linebreak $
T: Passo e Mezzo
P: for Passo e Mezzo: 11 times through for Dolce Amoroso Fuoco: 5 times through for Ardente Sole: 7 times through
K: G dorian
M: 2/2
L: 1/4
"^Optional Descant""Gm"ga bc' | d'c' ba | g2 z2 | z2 c'/b/a/g/ | "F"f2 z2 | fe fg | 
ag ab | c'/b/a/g/ b/a/g/f/ | "Gm"g2 z2 | z4 | gb ag | "D"^fg a2 | 
z2 a/b/a/g/ | a2 z2 | a/b/a/g/ a2 | g/a/b/c'/ d'/c'/b/a/ | "Gm"g2 z2 | ga ba | 
g2 z2 | z2 c'/b/a/g/ | "F"f2 z2 | fe fg | "F"a2 "Gm"b2 | "F"c'2 "Dm"a2 | 
"Gm"gb ag | "D"^fg a2 | "D G"z4 | "Am"z2 "D"d'/c'/=b/a/ | "G"g2 z2 | "G"g/a/=b/c'/ "D"d'/c'/=b/a/ | 
"G"g4- | g4 | 

